!!!!SEGMENT: pl-sa--143-a-iii-43--001_anonim--missa-gregoriano-canto-kyrie.krn
!!!cenid: 18xx:1286
!!!COM: Anonim
!!!COM-rismID: pe30004985
!!!CDT:
!!!CNT:
!!!OPR: Missa Gregoriano Canto
!!!OTL: Kyrie
!!!OMV: 001
!!!PDT: 1815
!!!AGN: Sacred; Mass
!!!SMS-siglum: PL-SA
!!!SMS-shelfmark: 143/A III 43
!!!SMS-shelfwork: 001-001 M
!!!SMS-variant:
!!!SMS-altvar:
!!!NIFC-rismSourceID: 1001035509
!!!NIFC-rismChildID: 1001035509
!!!NIFC-islandoraID:
!!!URL-pdf-islandora:
!!!URL-scan: https://bc.bdsandomierz.pl/dlibra/publication/1500/edition/1468/content @EN{Scan in the Sandomierz Diocese Digital Library} @PL{Skany w portalu Cyfrowa Biblioteka Diecezjalna w Sandomierzu}
!!!ONB-nifc: UWAGA: części Mszy: 1. Kyrie, 2. Et in terra, 3. Patrem,. 4. Et incarnatus, 5. Et resurrexit, 6. Sanctus, 7. Benedictus, 8. Agnus Dei
!!!AIN: 1 organ 2 soprn
!!!key: F
**kern	**kern	**kern	**text	**kern	**text
*part3	*part3	*part2	*part2	*part1	*part1
*staff4	*staff3	*staff2	*staff2	*staff1	*staff1
*I"Organo.	*I"Organo.	*I"Canto 2do.	*	*I"Canto_Primo.	*
*I'org	*I'org	*I'S 2	*	*I'S 1	*
*Iorgan	*Iorgan	*Isoprn	*	*Isoprn	*
*ICklav	*ICklav	*ICvox	*	*ICvox	*
*IGacmp	*IGacmp	*	*	*	*
*clefF4	*clefC1	*clefC1	*	*clefC1	*
*k[b-]	*k[b-]	*k[b-]	*	*k[b-]	*
*F:	*F:	*F:	*	*F:	*
*M2/2	*M2/2	*M2/2	*	*M2/2	*
*met(c|)	*met(c|)	*met(c|)	*	*met(c|)	*
=1	=1	=1	=1	=1	=1
*	*2\right	*2\right	*	*2\right	*
!	!LO:TX:b:t=Kyrie	!	!	!	!
!	!LO:TX:t=Msza. Sandomirska.	!LO:TX:t=Msza Sandomirska	!	!LO:TX:i:t=Msza Sandomirska	!
!LO:TX:t=P:problem=metrum obrócone	!LO:TX:t=P:problem=metrum obrócone	!LO:TX:t=P:problem=metrum obrócone	!	!LO:TX:t=P:problem=metrum obrócone	!
4F\	2cc\	2a\	Ky-	2cc\	Ky-
4F\	.	.	.	.	.
4F\	2a\	2f/	-rie	2a\	-rie
4F\	.	.	.	.	.
=2	=2	=2	=2	=2	=2
4F\	4b- 4g\	4g\	e-	4b-\	e-
4r	4cc 4a\	4a\	.	4cc\	.
2r	4dd 4b-\	4b-\	.	4dd\	.
.	4cc 4a\	4a\	.	4cc\	.
=3	=3	=3	=3	=3	=3
4r	4cc\	4a\	-ley-	4cc\	-ley-
4C/	4b-\	4g\	.	4b-\	.
4E/	2b-\	2g\	-son	2b-\	-son
4G/	.	.	.	.	.
=4	=4	=4	=4	=4	=4
4C/	2b-\	2g/	Ky-	2b-\	Ky-
4C/	.	.	.	.	.
4C/	2g\	2e/	-rie	2g\	-rie
4C/	.	.	.	.	.
=5	=5	=5	=5	=5	=5
4F\	4a 4f\	4f/	e-	4a\	e-
4r	4b- 4g\	4g/	.	4b-\	.
2r	4cc 4a\	4a/	.	4cc\	.
.	4b- 4g\	4g/	.	4b-\	.
=6	=6	=6	=6	=6	=6
4r	4b-\	4g/	-ley-	4b-\	-ley-
4c\	4a\	4f/	.	4a\	.
4A\	2a\	2f/	-son	2a\	-son
4F\	.	.	.	.	.
=7	=7	=7	=7	=7	=7
4F\	2a\	2f/	Ky-	2a\	Ky-
4r	.	.	.	.	.
2r	4b-\	4g/	-rie	4b-\	-rie-
.	4cc\	4a/	.	4cc\	.
!LO:LB:g=original	!LO:LB:g=original	!	!	!	!
=8	=8	=8	=8	=8	=8
4r	2dd\	2b-\	e-	2dd\	-e-
4B-\	.	.	.	.	.
4G\	2b-\	2g\	.	2b-\	.
4E\	.	.	.	.	.
=9	=9	=9	=9	=9	=9
2C/	2g/	2e/	.	2g\	.
2r	4a\	4f/	.	4a\	.
.	4b-\	4g/	.	4b-\	.
=10	=10	=10	=10	=10	=10
*	*^	*	*	*	*
4r	2cc/	2a\	2a\	-ley-	2cc\	-ley-
4c\	.	.	.	.	.	.
4A\	2a/	2f\	2f/	-son	2a\	-son
4F\	.	.	.	.	.	.
=11	=11	=11	=11	=11	=11	=11
4F\	4a/	4f\	4f/	Ky-	4a\	Ky-
4r	4cc/	4a\	4a/	.	4cc\	.
4E\	4b-/	4g\	4g/	-rie	4b-\	-ri-
4r	4dd/	4b-\	4b-/	.	4dd\	-e-
!	!	!	!LO:LB:g=original	!	!LO:LB:g=original	!
=12	=12	=12	=12	=12	=12	=12
4r	2cc/	2a\	2a\	e-	2cc\	.
4A\	.	.	.	.	.	.
4G\	4dd/	4b-\	4b-\	-ley-	4dd\	-ley-
4E\	4b-/	4g\	4g\	-son	4b-\	-son
=13	=13	=13	=13	=13	=13	=13
4F\	4a/	4f\	4f/	Ky-	4a\	Ky-
4r	4cc/	4a\	4a/	.	4cc\	.
4E\	4b-/	4g\	4g/	-rie	4b-\	-ri-
4r	4dd/	4b-\	4b-/	.	4dd\	-e-
=14	=14	=14	=14	=14	=14	=14
4r	2cc/	2a\	2a\	e-	2cc\	-ley-
4A\	.	.	.	.	.	.
4B-\	4dd/	4b-\	4b-\	-ley-	4dd\	-son
4G\	4b-/	4g\	4g\	-son	4b-\	.
=15	=15	=15	=15	=15	=15	=15
4F\	4a/	4f\	4f\	Ky-	4a\	Ky-
4C\	4cc/	4a\	4a\	.	4cc\	.
4F\	4cc/	4a\	4a\	-rie	4cc\	-ri-
4C\	8b-/L	8g\L	8g\L	.	8b-\L	-e-
.	8a/J	8f\J	8f\J	.	8a\J	.
*	*v	*v	*	*	*	*
!LO:LB:g=original	!LO:LB:g=original	!	!	!	!
=16	=16	=16	=16	=16	=16
4E\	2b-\	2g/	e-	2b-\	.
4C\	.	.	.	.	.
4E\	4g\	4e/	-ley-	4g\	-ley-
4C\	4b-\	4g/	-son	4b-\	-son
=17	=17	=17	=17	=17	=17
4F\	8a\L	8f/L	Ky-	8a\L	Ky-
.	8b-\	8g/J	.	8b-\J	.
4C\	8cc\	8a\L	-rie	8cc\L	-ri-
.	8dd\J	8b-\J	.	8dd\J	.
4F\	4cc\	4a\	.	4cc\	.
4C\	8b-\L	8g/L	e-	8b-\L	-e-
.	8a\J	8f/J	.	8a\J	.
=18	=18	=18	=18	=18	=18
4E\	2b-\	2g/	.	2b-\	.
4C\	.	.	.	.	.
4E\	4g\	4e/	-ley-	4g\	-ley-
4C\	4b-\	4g/	-son	4b-\	-son
=19	=19	=19	=19	=19	=19
8F\L	4a\	4f/	e-	4a\	e-
8A\	.	.	.	.	.
8c\	4ff 4a\	4a/	.	4ff\	.
8f\J	.	.	.	.	.
8F\L	4ff 4a\	4a/	-ley-	4ff\	-ley-
8A\	.	.	.	.	.
8c\	4ff 4a\	4a/	.	4ff\	.
8f\J	.	.	.	.	.
=20	=20	=20	=20	=20	=20
1F	1ff 1a 1c	1a;	-son	1ff	-son
=21||	=21||	=21||	=21||	=21||	=21||
*	*^	*	*	*	*
4F\	2cc/	2a\	2a\	chri-	2cc\	chri-
4F\	.	.	.	.	.	.
4F\	8cc\L	2ryy	8a\L	-ste	8cc\L	.
.	8dd\	.	8b-\	.	8dd\	.
4F\	8cc\	.	8a\	.	8cc\	.
.	8b-\J	.	8g\J	.	8b-\J	.
=22	=22	=22	=22	=22	=22	=22
*2\right	*	*	*	*	*	*
2F\	4a/	4ryy	4f/	e-	4a\	-ste
.	4cc/	4a\	4a/	.	4cc\	e-
!	!	!	!LO:LB:g=original	!	!	!
2r	4a/	4f\	4f/	-ley-	4a\	-ley-
.	4f/	4d\	4f/	-son	4f\	-son
*	*v	*v	*	*	*	*
=23	=23	=23	=23	=23	=23
4E\	2b-\	2g/	chri-	2b-\	chri-
4E\	.	.	.	.	.
4E\	8b-\L	8g/L	-ste	8b-\L	.
.	8cc\	8a/J	.	8cc\J	.
4E\	8b-\	8g/L	.	8b-\L	-ste
.	8a\J	8f/J	.	8a\J	.
!	!	!	!	!LO:LB:g=original	!
=24	=24	=24	=24	=24	=24
*	*^	*	*	*	*
2E\	4ryy	4g\	4g/	e-	4g\	e-
.	4b-/	4g\	4g/	.	4b-\	.
2r	4g/	4e\	4g/	-ley-	4g\	-ley-
.	4e/	4c\	4g/	-son	4e/	-son
!LO:LB:g=original	!LO:LB:g=original	!LO:LB:g=original	!	!	!	!
=25	=25	=25	=25	=25	=25	=25
4F\	4f/	4d\	4d/	Ky-	4f/	Ky-
4F\	4g/	4e\	4e/	.	4g/	.
4F\	4a/	4f\	4f/	-rie-	4a/	-ri-
4F\	4f/	4d\	4d/	.	4f/	-e-
=26	=26	=26	=26	=26	=26	=26
4G\	2b-/	2g\	2g/	-ley-	2b-\	-ley-
4E\	.	.	.	.	.	.
4C\	2g/	2c/	2e/	-son	2g\	-son
4E\	.	.	.	.	.	.
=27	=27	=27	=27	=27	=27	=27
4C/	4g/	4e\	4e/	Ky-	4g\	Ky-
4C/	4a/	4f\	4f/	.	4a\	.
4C/	4b-/	4g\	4g/	-rie	4b-\	-ri-
4C/	4g/	4e\	4e/	e-	4g\	-e-
=28	=28	=28	=28	=28	=28	=28
4A\	2cc/	2a\	2a\	-ley-	2cc\	-ley-
4F\	.	.	.	.	.	.
4C\	2a/	2f\	2f/	-son,	2a\	-son
4F\	.	.	.	.	.	.
=29	=29	=29	=29	=29	=29	=29
4r	4cc/	4a\	4a\	Ky-	4cc\	Ky-
4F\	4b-/	4g\	4g\	.	4b-\	.
4A\	4a/	4f\	4f\	-rie	4a\	-ri-
4F\	4a/	4f\	4f\	e-	4a\	-e-
*	*v	*v	*	*	*	*
=30	=30	=30	=30	=30	=30
4r	4b-\	4g\	-ley-	4b-\	-ley-
4G\	4cc\	4a\	.	4cc\	.
4E\	2dd\	2b-\	-son	2dd\	-son
4G\	.	.	.	.	.
=31	=31	=31	=31	=31	=31
4r	4b-\	4g/	Ky-	4b-\	Ky-
4C/	4a\	4f/	.	4a\	.
4E/	4g\	4e/	-rie	4g\	-ri-
4C/	4g\	4e/	e-	4g\	-e-
=32	=32	=32	=32	=32	=32
4r	4a\	4f/	-ley-	4a\	-ley-
4c\	4b-\	4g/	.	4b-\	.
4A\	2cc\	2a\	-son	2cc\	-son
4F\	.	.	.	.	.
=33	=33	=33	=33	=33	=33
*	*^	*	*	*	*
4F\	2cc/	2a\	2a\	Ky-	2cc\	Ky-
4F\	.	.	.	.	.	.
4A\	4cc/	4a\	4a\	-ri-	4cc\	-ri-
4F\	4cc/	4a\	4a\	-e	4cc\	-e
!	!	!	!LO:LB:g=original	!	!	!
=34	=34	=34	=34	=34	=34	=34
*	*	*	*	*	*	*ij
4G\	2dd/	2b-\	2b-\	Ky-	2dd\	Ky-
4G\	.	.	.	.	.	.
4B-\	4dd/	4b-\	4b-\	-ri-	4dd\	-ri-
4G\	4dd/	4b-\	4b-\	-e	4dd\	-e
*	*	*	*	*	*	*Xij
*	*v	*v	*	*	*	*
!LO:LB:g=original	!LO:LB:g=original	!	!	!	!
=35	=35	=35	=35	=35	=35
4C/	2ee 2g\	2g\	Ky-	2ee\	Ky-
4C/	.	.	.	.	.
4E/	4ee 4g\	4g\	-rie	4ee\	-ri-
4C/	4ee 4g\	4g\	e-	4ee\	-e-
!	!	!	!	!LO:LB:g=original	!
=36	=36	=36	=36	=36	=36
2F\	2ff 2a\	2a\	-ley-	2ff\	-ley-
2FF/	2ff 2a\	2a\	-son.	2ff\	-son
=37||	=37||	=37||	=37||	=37||	=37||
4r	2cc\	2a\	Ky-	2cc\	Ky-
4F\	.	.	.	.	.
4F\	4a\	4f/	-rie	4a\	-ri-
4F\	4f\	4f/	e-	4f/	-e-
=38	=38	=38	=38	=38	=38
*	*^	*	*	*	*
4r	2dd/	2b-\	2b-\	-ley-	2dd\	-ley-
4F\	.	.	.	.	.	.
4F\	2cc/	2a\	2a\	-son.	2cc\	-son
4F\	.	.	.	.	.	.
*	*v	*v	*	*	*	*
=39	=39	=39	=39	=39	=39
4r	2b-\	2g\	Ky-	2b-\	Ky-
4E\	.	.	.	.	.
4E\	4g\	4e/	-rie	4g/	-ri-
4E\	4e/	4e/	e-	4e/	-e-
=40	=40	=40	=40	=40	=40
*	*^	*	*	*	*
4r	2cc/	2a\	2a\	-ley-	2cc\	-ley-
4E\	.	.	.	.	.	.
4E\	2b-/	2g\	2g\	-son.	2b-\	-son
4E\	.	.	.	.	.	.
*	*v	*v	*	*	*	*
=41	=41	=41	=41	=41	=41
4r	4a\	4f/	Ky-	4a\	Ky-
4F\	4cc\	4a/	.	4cc\	.
4F\	4b-\	4g/	-rie	4b-\	-ri-
4F\	4dd\	4b-/	e-	4dd\	-e-
=42	=42	=42	=42	=42	=42
4r	2cc\	2a\	.	2cc\	.
4C/	.	.	.	.	.
4E/	4b-\	4g\	-ley-	4b-\	-ley-
4C/	4g\	4e\	-son	4g\	-son
=43	=43	=43	=43	=43	=43
4r	4a\	4f/	Ky-	4a\	Ky-
4F\	4cc\	4a/	.	4cc\	.
4F\	4b-\	4g/	-rie	4b-\	-ri-
4F\	4dd\	4b-/	e-	4dd\	-e-
=44	=44	=44	=44	=44	=44
4r	2cc\	2a\	-ley-	2cc\	.
4C/	.	.	.	.	.
4E/	4b-\	4g\	.	4b-\	-ley-
4C/	4g\	4e\	-son	4g\	-son
=45	=45	=45	=45	=45	=45
!	!	!LO:TX:t=1.	!	!	!
4F\	8f/L	1r	.	8f/L	e-
.	8e/	.	.	8e/	.
4r	8f/	.	.	8f/	.
.	8g/J	.	.	8g/J	.
4r	4a\	.	.	4a\	-ley-
4F\	4a\	.	.	4a\	-son
!LO:LB:g=original	!LO:LB:g=original	!	!	!	!
=46	=46	=46	=46	=46	=46
*	*^	*	*	*	*
*	*	*	*	*	*	*ij
4G\	8g/L	2ryy	8e/L	e-	8g\L	e-
.	8f/	.	8d/	.	8f\	.
4r	8g/	.	8e/	.	8g\	.
.	8a/J	.	8f/J	.	8a\J	.
4r	4b-/	4g\	4g/	-ley-	4b-\	-ley-
4G\	4b-/	4g\	4g/	-son	4b-\	-son
*	*	*	*	*	*	*Xij
!	!	!	!LO:LB:g=original	!	!LO:LB:g=original	!
=47	=47	=47	=47	=47	=47	=47
4A\	(8a\L	2ryy	8f/L	e-	8a\L	e-
.	8g\	.	8e/	.	8g\	.
4r	8a\	.	8f/	.	8a\	.
.	8b-\J)	.	8g/J	.	8b-\J	.
4r	4cc/	4a\	4a\	-ley-	4cc\	-ley-
4A\	4cc/	4a\	4a\	-son	4cc\	-son
=48	=48	=48	=48	=48	=48	=48
*	*	*	*	*	*	*ij
4B-\	8b-\L	2ryy	8g/L	e-	8b-\L	e-
.	8a\	.	8f/	.	8a\	.
4r	8b-\	.	8g/	.	8b-\	.
.	8cc\J	.	8a/J	.	8cc\J	.
4r	4dd/	4b-\	4b-\	-ley-	4dd\	-ley-
4B-\	4dd/	4b-\	4b-\	-son	4dd\	-son
*	*	*	*	*	*	*Xij
*	*v	*v	*	*	*	*
=49	=49	=49	=49	=49	=49
2F\	4cc\	4a\	Ky-	4cc\	Ky-
.	4ff\	4cc\	.	4ff\	.
2r	4a\	4f\	-rie	4a\	-ri-
.	4cc\	4a\	e-	4cc\	-e-
=50	=50	=50	=50	=50	=50
*	*^	*	*	*	*
4r	2b-/	2g\	2g\	.	2b-\	.
4C/	.	.	.	.	.	.
4D/	4g/	4e\	4e/	-ley-	4g\	-ley-
4E/	4b-/	4g\	4g/	-son	4b-\	-son
*	*v	*v	*	*	*	*
=51	=51	=51	=51	=51	=51
2F\	4cc\	4a\	Ky-	4cc\	Ky-
.	4ff\	4cc\	.	4ff\	.
2r	4a\	4f\	-rie	4a\	-ri-
.	4cc\	4a\	e-	4cc\	-e-
=52	=52	=52	=52	=52	=52
*	*^	*	*	*	*
4r	2b-/	2g\	2g\	.	2b-\	.
4C/	.	.	.	.	.	.
4D/	4g/	4e\	4e/	-ley-	4g\	-ley-
4E/	4b-/	4g\	4g/	.	4b-\	.
=53	=53	=53	=53	=53	=53	=53
1F;	1a;	1f	1f	-son	1a	-son
*	*v	*v	*	*	*	*
==	==	==	==	==	==
*-	*-	*-	*-	*-	*-
!!!system-decoration: [(s1,s2)]{(s3,s4)}
!!!ENC: Kamil Watkowski
!!!END: 2020-12-07
!!!ENC: Marta Lawrence
!!!END: 2022-03-27
!!!YEC: Copyright 2022 Narodowy Instytut Fryderyka Chopina (https://polishscores.org)
!!!YEM: License CC-BY-4.0 (https://creativecommons.org/licenses/by/4.0)
